!!!OTL: Feierabendlied (2-21) S. 157
!!!id: P0922
**kern
*clefG2
*k[f#]
*D:
{8f#
=1
4d
8f#
4f#
8a
=2
4a
8g
4f#
8dd
=3
4a
8g
4f#}
=4
{8f#
=5
4d
8f#
8f#
8e
8g
=6
4.b
4a}
=7
{8a
=8
4a
8g
4e
8g
=9
8b
8a
8g
4f#}
=10
{8f#
=11
4d
8f#
8f#
8e
8f#
=12
4g}
4.r
=13
{8b
=14
8a
8dd
16a
16g
4f#
8e
=15
4.d}
4r
==
*-
!!!minrhy: 16
!!!meters: 6/8 ]  ZZ[5
!!!cut: Feierabendlied (2-21) S. 157
!!!reg: Lothringen
!!!trd: PINCK, Louis: Verklingende Weisen, Bd 2, Metz 1928
!!!rhy1: X_  X__X_X__X_  X__X_X__X_  X__X_X__   (x2)
!!!rhy2: X_  X__X_X_X_X_  X__.X__
!!!key: P0922  16  D 6/8 ]  ZZ[5
!!!mod: SECHSTONSKALA DUR ?]  AMBITUS[8
!!!kad: 35341
!!!akz: 135353_1365_5263_134_531_
!!!fot: 'a__b__c__aw_d__
!!!for: 'a__b__c__bw_d__
!!!fok: 'S__Va_Sd_Va_^d_
!! PHRAS[AUFTAKTIG]
!!!fkt: Arbeitslied
!! LOTH VKL
!! PR[22] 2K[8] 2G[30] 3K[3] 3G[3] 4A[5] 4Ü[0] 5A[0] 6K[0] 6G[0]
!! 7K[0] 7G[0] 8A[0] MEHR[0] SI[49] ABS[37] SR[38] SP[11]
!! ST[8] 2k[3] 2g[11] 3k[3] 3g[8] 4d[0] 4ü[3] 5d[3] 6k[0] 6g[0]
!! 7k[0] 7g[0] 8d[0] mehr[0] si[30] dm[+19] sr[14] sp[16]
!! 1F[55] 2F[35] 3F[5] 4F[0] LF[0] 2P[5] 3P[0] 4P[0] TRI[0] DF[4] AB[40]
!! TF[0] U3K[0] U3[0] U4[0] U4Ü[0] U5[5] U6K[0] U6[0] U7K[0] U7[5]
!! N1[37] N2K[0] N2[18] N3K[0] N3[18] N4[8] N4Ü[0] N5[5] N6K[0] N6[3]
!!!n7k: 0] N7[0] O1[0] O2K[0] O2[0] O3K[0] O3[0] HÖ[0
